X: 75
T: The Royal Dozen
%R: reel, march
B: Chas & Sam Thompson "Twenty Four Country Dances for the Year 1776", London 1776, p.38 #1
F: http://www.vwml.org/browse/browse-collections-dance-tune-books/browse-thompsons1776#
Z: 2014 John Chambers <jc:trillian.mit.edu> (added dance description)
M: 2/4
L: 1/16
K: D
% - - - - - - - - - - - - - - - - - - - - - - - - - - - - -
|:\
f2fg f2d2 | e2ef e2A2 | B2Bd c2ce | d2dc d2e2 |\
fefg f2d2 | edef e2A2 | B2Bd c2ce | d8 :|
|:\
a2a4f2 | g2AB A2A2 | g2g4e2 | .f2(de) .d2(fg) |\
.a2(ab) .a2(fg) | .a2(ab) .a2(fd) | g2g4f2 | f4 e4 |
f2fg f2d2 | e2ef e2A2 | B2Bd c2ce | d2dc d2e2 |\
fefg f2d2 | edef e2A2 | B2Bd c2ce | d8 :|
% - - - - - - - - - - Dance description - - - - - - - - - -
%%begintext align
%% Foot it 4 & change sides .| the same back again :|
%% lead down the middle up again & cast off .|| hands
%% 4 at bottom right & left at top :||
%%endtext

%%sep 1 1 500
%%sep 1 1 500
